Origami/24x24/apps/dotmemory.svg

<svg width="24" height="24" version="1" xmlns="http://www.w3.org/2000/svg">
 <path d="m12 2h-9c-0.554 0-1 0.446-1 1v9h10z" style="fill:#f7c73c"/>
 <path d="m12 2h9c0.554 0 1 0.446 1 1v9h-10z" style="fill:#cf4f8c"/>
 <path d="m12 22h-9c-0.554 0-1-0.446-1-1v-9h10z" style="fill:#6655e4"/>
 <path d="m12 22h9c0.554 0 1-0.446 1-1v-9h-10z" style="fill:#f7c73c"/>
 <path d="m3 2c-0.554 0-1 0.446-1 1v0.5c0-0.554 0.446-1 1-1h18c0.554 0 1 0.446 1 1v-0.5c0-0.554-0.446-1-1-1z" style="fill:#ffffff;opacity:.2"/>
 <path d="m3 22.5c-0.554 0-1-0.446-1-1v-0.5c0 0.554 0.446 1 1 1h18c0.554 0 1-0.446 1-1v0.5c0 0.554-0.446 1-1 1z" style="opacity:.2"/>
 <rect x="5" y="5" width="14" height="14" style="fill:#3f3f3f"/>
 <path d="m7.5071212 15.99995h3.9999998" style="fill:none;opacity:.2;stroke-linecap:round;stroke:#000000"/>
 <path d="m7.5071212 15.5h3.9999998" style="fill:none;stroke-linecap:round;stroke:#ffffff"/>
 <path d="m7.5071212 11.99995s2.021891 0.175125 1.9999995-1.999999c-0.02189-2.175132-1.9999995-2.0000015-1.9999995-2.0000015m-0.00705 3.9967935v-3.999999" style="fill:none;opacity:.2;stroke-linecap:round;stroke-linejoin:bevel;stroke-width:.99999994;stroke:#000000"/>
 <path d="m7.5071212 11.5s2.021891 0.175125 1.9999995-1.999999c-0.02189-2.175132-1.9999995-2.0000015-1.9999995-2.0000015m-0.00705 3.9967935v-3.999999" style="fill:none;stroke-linecap:round;stroke-linejoin:bevel;stroke-width:.99999994;stroke:#ffffff"/>
 <path d="m14.507121 11.999952v-4.0000015m-3 0 1.5 1.9999995 1.5-1.9999995m-3 4.0000015v-4.0000015" style="fill:none;opacity:.2;stroke-linecap:round;stroke-linejoin:round;stroke-width:.99999994;stroke:#000000"/>
 <path d="m14.507121 11.500002v-4.0000015m-3 0 1.5 1.9999995 1.5-1.9999995m-3 4.0000015v-4.0000015" style="fill:none;stroke-linecap:round;stroke-linejoin:round;stroke-width:.99999994;stroke:#ffffff"/>
</svg>

<svg xmlns="http://www.w3.org/2000/svg" width="24" height="24" version="1">
 <path style="fill:#f7c73c" d="M 12,2 H 3 C 2.446,2 2,2.446 2,3 v 9 h 10 z"/>
 <path style="fill:#cf4f8c" d="m 12,2 h 9 c 0.554,0 1,0.446 1,1 v 9 H 12 Z"/>
 <path style="fill:#6655e4" d="M 12,22 H 3 C 2.446,22 2,21.554 2,21 v -9 h 10 z"/>
 <path style="fill:#f7c73c" d="m 12,22 h 9 c 0.554,0 1,-0.446 1,-1 V 12 H 12 Z"/>
 <path style="opacity:0.2;fill:#ffffff" d="M 3,2 C 2.446,2 2,2.446 2,3 v 0.5 c 0,-0.554 0.446,-1 1,-1 h 18 c 0.554,0 1,0.446 1,1 V 3 C 22,2.446 21.554,2 21,2 Z"/>
 <path style="opacity:0.2" d="m 3,22.5 c -0.554,0 -1,-0.446 -1,-1 V 21 c 0,0.554 0.446,1 1,1 h 18 c 0.554,0 1,-0.446 1,-1 v 0.5 c 0,0.554 -0.446,1 -1,1 z"/>
 <rect style="fill:#3f3f3f" width="14" height="14" x="5" y="5"/>
 <path style="opacity:0.2;fill:none;stroke:#000000;stroke-linecap:round" d="M 7.5071212,15.99995 H 11.507121"/>
 <path style="fill:none;stroke:#ffffff;stroke-linecap:round" d="M 7.5071212,15.5 H 11.507121"/>
 <path style="opacity:0.2;fill:none;stroke:#000000;stroke-width:0.99999994;stroke-linecap:round;stroke-linejoin:bevel" d="m 7.5071212,11.99995 c 0,0 2.021891,0.175125 1.9999995,-1.999999 C 9.4852307,7.824819 7.5071212,7.9999495 7.5071212,7.9999495 m -0.00705,3.9967935 V 7.996744"/>
 <path style="fill:none;stroke:#ffffff;stroke-width:0.99999994;stroke-linecap:round;stroke-linejoin:bevel" d="m 7.5071212,11.5 c 0,0 2.021891,0.175125 1.9999995,-1.999999 C 9.4852307,7.324869 7.5071212,7.4999995 7.5071212,7.4999995 m -0.00705,3.9967935 V 7.496794"/>
 <path style="opacity:0.2;fill:none;stroke:#000000;stroke-width:0.99999994;stroke-linecap:round;stroke-linejoin:round" d="M 14.507121,11.999952 V 7.9999505 m -3,0 1.5,1.9999995 1.5,-1.9999995 m -3,4.0000015 V 7.9999505"/>
 <path style="fill:none;stroke:#ffffff;stroke-width:0.99999994;stroke-linecap:round;stroke-linejoin:round" d="M 14.507121,11.500002 V 7.5000005 m -3,0 1.5,1.9999995 1.5,-1.9999995 m -3,4.0000015 V 7.5000005"/>
</svg>
